X: 31019
T: Paddy Bartley's
R: strathspey
M: 4/4
K: Dmajor
A,|D2 F>A d>AF>D|E>Be>d c>A (3Bcd|D2 F>A d>AF>D|A,>EC>E F<D D:|
A|d>fa>f g>fe>d|c>Ae>A f>Ae>A|d>fa>f g>fe>d|c>ba>g f<dd>A|
d>fa>f g>fe>d|c>A (3AAA f>Ae>A|d>fa>f g>fe>d|c>ba>g f<dd>A||

